flaticon/emoticons/listening.svg

<svg xmlns="http://www.w3.org/2000/svg" width="32" height="32" viewBox="0 0 24 24">
    <path d="M15.050781 17.492188C14.824219 17.492188 14.644531 17.671875 14.644531 17.898438 14.644531 19.246094 13.550781 20.339844 12.203125 20.339844 10.855469 20.339844 9.761719 19.246094 9.761719 17.898438 9.761719 17.671875 9.582031 17.492188 9.355469 17.492188 9.132812 17.492188 8.949219 17.671875 8.949219 17.898438 8.949219 19.691406 10.410156 21.152344 12.203125 21.152344 13.996094 21.152344 15.457031 19.691406 15.457031 17.898438 15.457031 17.671875 15.277344 17.492188 15.050781 17.492188zM10.167969 15.050781C10.167969 15.5 9.804688 15.863281 9.355469 15.863281 8.90625 15.863281 8.542969 15.5 8.542969 15.050781 8.542969 14.601562 8.90625 14.238281 9.355469 14.238281 9.804688 14.238281 10.167969 14.601562 10.167969 15.050781zM15.863281 15.050781C15.863281 15.5 15.5 15.863281 15.050781 15.863281 14.601562 15.863281 14.238281 15.5 14.238281 15.050781 14.238281 14.601562 14.601562 14.238281 15.050781 14.238281 15.5 14.238281 15.863281 14.601562 15.863281 15.050781zM15.863281 15.050781"/>
    <path d="M 22.363281 9.441406 C 22.199219 4.265625 18.078125 0.8125 12 0.8125 C 5.921875 0.8125 1.800781 4.265625 1.636719 9.441406 C 0.695312 9.703125 0 10.570312 0 11.59375 L 0 17.289062 C 0 18.523438 1.003906 19.527344 2.238281 19.527344 C 3.035156 19.527344 3.738281 19.101562 4.132812 18.46875 C 5.679688 21.363281 8.660156 23.1875 12 23.1875 C 15.339844 23.1875 18.320312 21.363281 19.867188 18.46875 C 20.261719 19.101562 20.964844 19.527344 21.761719 19.527344 C 22.996094 19.527344 24 18.523438 24 17.289062 L 24 11.59375 C 24 10.570312 23.304688 9.703125 22.363281 9.441406 Z M 12 1.628906 C 16.644531 1.628906 21.328125 4.027344 21.546875 9.367188 C 20.914062 9.425781 20.359375 9.753906 19.988281 10.234375 C 19.183594 8.558594 17.898438 7.226562 16.3125 6.371094 C 15.042969 5.589844 13.554688 5.15625 11.9375 5.15625 C 10.257812 5.15625 8.722656 5.644531 7.429688 6.507812 C 5.960938 7.367188 4.769531 8.648438 4.011719 10.234375 C 3.640625 9.753906 3.085938 9.425781 2.453125 9.367188 C 2.671875 4.027344 7.355469 1.628906 12 1.628906 Z M 7.484375 7.4375 C 8.777344 6.582031 10.332031 6.101562 12 6.101562 C 13.382812 6.101562 14.6875 6.4375 15.828125 7.035156 C 17.640625 8.128906 18.96875 9.996094 19.46875 12.355469 C 17.917969 12.871094 17.035156 11.804688 16.203125 10.5625 C 16.0625 10.355469 15.84375 10.21875 15.601562 10.179688 C 15.351562 10.144531 15.09375 10.210938 14.894531 10.371094 C 11.117188 13.386719 5.953125 12.59375 4.542969 12.300781 C 4.992188 10.214844 6.039062 8.542969 7.484375 7.4375 Z M 2.238281 18.710938 C 1.453125 18.710938 0.8125 18.074219 0.8125 17.289062 L 0.8125 11.59375 C 0.8125 10.808594 1.453125 10.167969 2.238281 10.167969 C 2.925781 10.167969 3.5 10.660156 3.632812 11.304688 C 3.632812 11.304688 3.632812 11.308594 3.632812 11.308594 C 3.652344 11.398438 3.660156 11.496094 3.660156 11.59375 L 3.660156 17.273438 C 3.660156 17.292969 3.65625 17.332031 3.652344 17.34375 C 3.652344 17.347656 3.65625 17.347656 3.65625 17.347656 C 3.621094 18.105469 3 18.710938 2.238281 18.710938 Z M 19.527344 17.296875 C 18.273438 20.382812 15.328125 22.371094 12 22.371094 C 8.671875 22.371094 5.726562 20.382812 4.472656 17.296875 C 4.472656 17.292969 4.472656 17.289062 4.472656 17.289062 L 4.472656 13.121094 C 5.117188 13.253906 6.300781 13.449219 7.746094 13.449219 C 10.027344 13.449219 12.949219 12.964844 15.402344 11.003906 C 15.433594 10.980469 15.464844 10.980469 15.476562 10.984375 C 15.507812 10.988281 15.523438 11.007812 15.527344 11.015625 C 16.191406 12.003906 17.382812 13.773438 19.527344 13.183594 L 19.527344 17.289062 C 19.527344 17.292969 19.527344 17.296875 19.527344 17.296875 Z M 23.1875 17.289062 C 23.1875 18.074219 22.546875 18.710938 21.761719 18.710938 C 21 18.710938 20.378906 18.105469 20.34375 17.347656 C 20.34375 17.347656 20.347656 17.347656 20.347656 17.34375 C 20.34375 17.320312 20.34375 17.292969 20.339844 17.289062 L 20.339844 11.59375 C 20.339844 11.496094 20.347656 11.398438 20.367188 11.308594 C 20.367188 11.308594 20.367188 11.308594 20.367188 11.304688 C 20.5 10.660156 21.074219 10.167969 21.761719 10.167969 C 22.546875 10.167969 23.1875 10.808594 23.1875 11.59375 Z M 23.1875 17.289062"/>
</svg>

<svg xmlns="http://www.w3.org/2000/svg" width="32" height="32" viewBox="0 0 24 24">
    <path d="M15.05 17.492a.403.403 0 0 0-.405.406 2.442 2.442 0 0 1-4.883 0 .406.406 0 1 0-.813 0 3.26 3.26 0 0 0 3.254 3.254 3.26 3.26 0 0 0 3.254-3.254.403.403 0 0 0-.406-.406zm0 0M10.168 15.05a.812.812 0 1 1-1.624.002.812.812 0 0 1 1.624-.001zm0 0M15.863 15.05a.812.812 0 1 1-1.623.002.812.812 0 0 1 1.623-.001zm0 0"/>
    <path d="M22.363 9.441C22.2 4.266 18.078.812 12 .812c-6.078 0-10.2 3.454-10.363 8.63A2.24 2.24 0 0 0 0 11.593v5.695a2.24 2.24 0 0 0 2.238 2.238c.797 0 1.5-.425 1.895-1.058A8.878 8.878 0 0 0 12 23.187c3.34 0 6.32-1.824 7.867-4.718a2.237 2.237 0 0 0 1.895 1.058A2.24 2.24 0 0 0 24 17.29v-5.695a2.24 2.24 0 0 0-1.637-2.153zM12 1.63c4.645 0 9.328 2.398 9.547 7.738a2.231 2.231 0 0 0-1.559.867 8.59 8.59 0 0 0-3.675-3.863c-1.27-.781-2.758-1.215-4.375-1.215-1.68 0-3.215.489-4.508 1.352a8.587 8.587 0 0 0-3.418 3.726 2.231 2.231 0 0 0-1.559-.867C2.672 4.027 7.355 1.63 12 1.63zM7.484 7.438A8.148 8.148 0 0 1 12 6.101c1.383 0 2.688.335 3.828.933 1.813 1.094 3.14 2.961 3.64 5.32-1.55.516-2.433-.55-3.265-1.793a.9.9 0 0 0-.601-.382.924.924 0 0 0-.707.191c-3.778 3.016-8.942 2.223-10.352 1.93.45-2.086 1.496-3.758 2.941-4.864zM2.238 18.71a1.425 1.425 0 0 1-1.425-1.422v-5.695c0-.785.64-1.426 1.425-1.426.688 0 1.262.492 1.395 1.137v.004c.02.09.027.187.027.285v5.68a.35.35 0 0 1-.008.07c0 .004.004.004.004.004a1.425 1.425 0 0 1-1.418 1.363zm17.29-1.414A8.085 8.085 0 0 1 12 22.37a8.085 8.085 0 0 1-7.527-5.074V13.12c.644.133 1.828.328 3.273.328 2.281 0 5.203-.484 7.656-2.445.032-.024.063-.024.075-.02a.066.066 0 0 1 .05.032c.664.988 1.856 2.757 4 2.168v4.113zm3.66-.008c0 .785-.641 1.422-1.426 1.422a1.425 1.425 0 0 1-1.418-1.363s.004 0 .004-.004c-.004-.024-.004-.051-.008-.055v-5.695c0-.098.008-.196.027-.285v-.004a1.429 1.429 0 0 1 1.395-1.137c.785 0 1.425.64 1.425 1.426zm0 0"/>
</svg>
